X:320
T:B320-  The New Bourree
Q:1/4=120
L:1/4
M:C|
K:Dm
d^cd/e/f|gecA|fef/g/a|bge2:|\
e(e/d/) (e/f/)g|g3/2f/ g/a/g/f/|e/d/e/c/ f/e/f/g/|g3/2f/f2|\
cc/B/ A/B/c/A/|fd=B2|gg/f/ e/f/g/e/|a3/2c/d2|]

